X: 582
T:Burnt Old Man, The
R:jig
M:6/8
L:1/8
N:Posted to the woodenflute mailing list September 2002
N:http://www.firepowr.com/abc/jigs1.abc  2002-09-15 12:34:22 UT
K:D
DFB AFD|~F3 F2E|DFB AFD|~E3 E2F|!
DFB AFD|F2A d2e|fed B2d|ABA F2E:|!
~d3 def|ABA AFA|~e3 ede|fed B2A|!
~d3 def|ABA d2e|fed B2d|ABA F2E:|!

